X: 16
T: 's Bachm\"uhlerl (Bb)
R: zwiefacher
M: 34/44
L: 1/8
K: Bb
|: "Bb"[dB][cA] [BG][cA] [dB][ec] | [d2B2][f2d2] [f4d4] \
| "F7"[c2A2] [ec][d=B] [ec][cA] | "Bb"B2G2 F4 \
| "Bb"[dB][cA] [BG][cA] [dB][ec] | [d2B2][f2d2] [f4d4] \
| "F7"[c2A2] [ec][d=B] [ec][cA] |1 "Bb"B2 z2 z2 :|2 "Bb"B2 z2 FG ||
|: "F7"F2 [cA][cA] [cA][cA] |[c2A2] z2 FG \
| "Bb"F2 [dB][dB] [dB][dB] | [d2B2] z2 FG \
| "F7"F2[c2A2] [c4A4] | "Bb"F2[d2B2] [d4B4] \
|1 "F7"[f2A2] [ec][dB] [cA][ec] | "Bb"[d2B2] z2 FG \
:|2 "F7"[ge][fd] [=e^c][fd] [_e=c][cA] | "Bb"B2 z2 z2 |]
%%sep 2 1 500
